src/images/Illustrator-Logo_weiss.svg

<?xml version="1.0" encoding="UTF-8" standalone="no"?>
<svg
   xml:space="preserve"
   viewBox="0 0 240 234"
   version="1.1"
   id="svg392"
   sodipodi:docname="Adobe_Illustrator_CC_icon_weiss.svg"
   inkscape:version="1.2.1 (ef4d3fba62, 2022-07-19, custom)"
   xmlns:inkscape="http://www.inkscape.org/namespaces/inkscape"
   xmlns:sodipodi="http://sodipodi.sourceforge.net/DTD/sodipodi-0.dtd"
   xmlns="http://www.w3.org/2000/svg"
   xmlns:svg="http://www.w3.org/2000/svg"><defs
   id="defs396" /><sodipodi:namedview
   id="namedview394"
   pagecolor="#505050"
   bordercolor="#eeeeee"
   borderopacity="1"
   inkscape:showpageshadow="0"
   inkscape:pageopacity="0"
   inkscape:pagecheckerboard="0"
   inkscape:deskcolor="#505050"
   showgrid="false"
   inkscape:zoom="3.3717949"
   inkscape:cx="120.26236"
   inkscape:cy="117.14829"
   inkscape:window-width="1920"
   inkscape:window-height="1016"
   inkscape:window-x="0"
   inkscape:window-y="0"
   inkscape:window-maximized="1"
   inkscape:current-layer="svg392" />
  <path
   id="path388"
   d="M 42.5 0 C 19.000024 0 0 19.000024 0 42.5 L 0 191.5 C 0 214.99998 19.000024 234 42.5 234 L 197.5 234 C 220.99998 234 240 214.99998 240 191.5 L 240 42.5 C 240 19.000024 220.99998 0 197.5 0 L 42.5 0 z M 170.19922 51.900391 C 174.09921 51.900391 177.10078 53.100393 179.30078 55.400391 C 181.50078 57.800388 182.69961 61.000785 182.59961 64.300781 C 182.69961 67.700778 181.49961 71.000002 179.09961 73.5 C 176.79961 75.899998 173.4 77.2 170 77 C 166.7 77.1 163.49961 75.799998 161.09961 73.5 C 158.79961 71.000002 157.59922 67.700778 157.69922 64.300781 C 157.59922 60.900785 158.90078 57.700388 161.30078 55.400391 C 163.70078 53.100393 166.89922 51.900391 170.19922 51.900391 z M 84 59.5 L 109.90039 59.5 C 110.70039 59.5 111.09922 59.800782 111.19922 60.300781 L 147.69922 163.30078 C 147.99922 164.40078 147.69922 164.90039 146.69922 164.90039 L 125.80078 164.90039 C 125.10078 165.00039 124.39922 164.50078 124.19922 163.80078 L 116 140 L 78.800781 140 L 71.199219 163.5 C 70.999219 164.4 70.20078 165.00039 69.300781 164.90039 L 50.5 164.90039 C 49.400001 164.90039 49.100391 164.29961 49.400391 163.09961 L 81.599609 70.400391 C 81.899609 69.400392 82.19961 68.299608 82.599609 67.099609 C 82.999609 64.999611 83.199219 62.799607 83.199219 60.599609 C 83.099219 60.09961 83.500001 59.6 84 59.5 z M 97 78 C 96.100001 82.299996 94.999608 86.600395 93.599609 90.900391 C 92.099611 95.700386 90.599998 100.69922 89 105.69922 C 87.600001 110.79921 86.099608 115.49922 84.599609 119.69922 L 110 119.69922 C 109.4 117.59922 108.59922 115.1 107.69922 112.5 C 106.79922 109.8 105.9 106.90039 105 103.90039 C 104 100.80039 103.09961 97.799216 102.09961 94.699219 C 101.09961 91.599222 100.20039 88.700778 99.400391 85.800781 C 98.600391 83.000784 97.899218 80.399998 97.199219 78 L 97 78 z M 160.09961 85.400391 L 179.90039 85.400391 C 180.80039 85.400391 181.19922 85.900782 181.19922 86.800781 L 181.19922 163.80078 C 181.19922 164.90078 180.80039 165.40039 179.90039 165.40039 L 160.30078 165.40039 C 159.30078 165.40039 158.80078 164.80078 158.80078 163.80078 L 158.80078 86.800781 C 158.80078 85.800782 159.19961 85.400391 160.09961 85.400391 z "
   style="fill:#ffffff" />
  
</svg>

<svg xmlns="http://www.w3.org/2000/svg" xml:space="preserve" viewBox="0 0 240 234"><path d="M42.5 0C19 0 0 19 0 42.5v149C0 215 19 234 42.5 234h155c23.5 0 42.5-19 42.5-42.5v-149C240 19 221 0 197.5 0h-155zm127.7 51.9c3.9 0 6.9 1.2 9.1 3.5 2.2 2.4 3.4 5.6 3.3 8.9.1 3.4-1.1 6.7-3.5 9.2-2.3 2.4-5.7 3.7-9.1 3.5-3.3.1-6.5-1.2-8.9-3.5-2.3-2.5-3.5-5.8-3.4-9.2-.1-3.4 1.2-6.6 3.6-8.9 2.4-2.3 5.6-3.5 8.9-3.5zM84 59.5h25.9c.8 0 1.2.3 1.3.8l36.5 103c.3 1.1 0 1.6-1 1.6h-20.9c-.7.1-1.4-.4-1.6-1.1L116 140H78.8l-7.6 23.5c-.2.9-1 1.5-1.9 1.4H50.5c-1.1 0-1.4-.6-1.1-1.8l32.2-92.7c.3-1 .6-2.1 1-3.3.4-2.1.6-4.3.6-6.5-.1-.5.3-1 .8-1.1zM97 78c-.9 4.3-2 8.6-3.4 12.9-1.5 4.8-3 9.8-4.6 14.8-1.4 5.1-2.9 9.8-4.4 14H110c-.6-2.1-1.4-4.6-2.3-7.2-.9-2.7-1.8-5.6-2.7-8.6-1-3.1-1.9-6.1-2.9-9.2-1-3.1-1.9-6-2.7-8.9-.8-2.8-1.5-5.4-2.2-7.8H97zm63.1 7.4h19.8c.9 0 1.3.5 1.3 1.4v77c0 1.1-.4 1.6-1.3 1.6h-19.6c-1 0-1.5-.6-1.5-1.6v-77c0-1 .4-1.4 1.3-1.4z" style="fill:#fff"/></svg>
